modules/hawcons-filled/icons/basketball.svg

<?xml version="1.0" encoding="UTF-8" standalone="no"?>
<svg width="32px" height="32px" viewBox="0 0 32 32" version="1.1" xmlns="http://www.w3.org/2000/svg" xmlns:xlink="http://www.w3.org/1999/xlink" xmlns:sketch="http://www.bohemiancoding.com/sketch/ns">
    <!-- Generator: Sketch 3.0.3 (7891) - http://www.bohemiancoding.com/sketch -->
    <title>icon 1 basketball</title>
    <desc>Created with Sketch.</desc>
    <defs></defs>
    <g id="Page-1" stroke="none" stroke-width="1" fill="none" fill-rule="evenodd" sketch:type="MSPage">
        <g id="icon-1-basketball" sketch:type="MSArtboardGroup" fill="#929292">
            <path d="M15.9901828,28.9803655 L15.9901828,16.9901828 L11.9803655,16.9901828 C11.8458088,20.4107374 10.3367527,23.4781414 7.99018276,25.6554094 C10.1067993,27.6193148 12.9048272,28.8589948 15.9901828,28.9803655 L15.9901828,28.9803655 Z M6.60056519,24.1361225 C5.0592617,22.1454405 4.10568282,19.6767367 4,16.9901828 L10.9795086,16.9901828 C10.8450381,20.133555 9.44874444,22.9500957 7.28428905,24.9461434 C7.29780997,24.9608558 6.82936171,24.4316264 6.60056519,24.1361225 L6.60056519,24.1361225 Z M25.6960765,24.9461434 C27.6364186,22.8348272 28.8598347,20.0541873 28.9803655,16.9901828 L28.9803655,16.9901828 L22.0008569,16.9901828 C22.1353274,20.133555 23.5316211,22.9500957 25.6960765,24.9461434 L25.6960765,24.9461434 L25.6960765,24.9461434 Z M24.9901828,25.6554094 C22.8735662,27.6193148 20.0755383,28.8589948 16.9901828,28.9803655 L16.9901828,28.9803655 L16.9901828,16.9901828 L21,16.9901828 C21.1345567,20.4107374 22.6436128,23.4781414 24.9901828,25.6554094 L24.9901828,25.6554094 L24.9901828,25.6554094 Z M25.6960765,8.03422208 C27.6364187,10.1455383 28.8598347,12.9261782 28.9803655,15.9901828 L28.9803655,15.9901828 L22.0008569,15.9901828 C22.1353274,12.8468105 23.5316211,10.0302698 25.6960765,8.03422208 L25.6960765,8.03422208 L25.6960765,8.03422208 Z M24.990183,7.32495633 C22.8735664,5.36105081 20.0755384,4.12137075 16.9901828,4 L16.9901828,15.9901828 L21,15.9901828 C21.1345567,12.5696281 22.6436128,9.50222407 24.9901828,7.32495611 L24.990183,7.32495633 L24.990183,7.32495633 Z M7.28428931,8.0342218 C5.34394697,10.1455381 4.12053086,12.9261781 4,15.9901828 L4,15.9901828 L10.9795086,15.9901828 C10.8450381,12.8468105 9.44874444,10.0302698 7.28428905,8.03422208 L7.28428931,8.0342218 L7.28428931,8.0342218 Z M7.99018275,7.32495611 C10.1067993,5.36105072 12.9048272,4.12137075 15.9901828,4 L15.9901828,4 L15.9901828,15.9901828 L11.9803655,15.9901828 C11.8458088,12.5696281 10.3367527,9.50222407 7.99018276,7.32495611 L7.99018275,7.32495611 L7.99018275,7.32495611 Z" id="basketball" sketch:type="MSShapeGroup"></path>
        </g>
    </g>
</svg>

<svg width="32" height="32" xmlns="http://www.w3.org/2000/svg"><path d="M15.99 28.98V16.99h-4.01a12.465 12.465 0 0 1-3.99 8.665 12.453 12.453 0 0 0 8 3.325zM6.6 24.136A12.44 12.44 0 0 1 4 16.99h6.98a11.469 11.469 0 0 1-3.696 7.956c.014.015-.455-.514-.683-.81zm19.096.81a12.452 12.452 0 0 0 3.284-7.956H22a11.469 11.469 0 0 0 3.696 7.956zm-.706.71a12.453 12.453 0 0 1-8 3.324V16.99H21a12.465 12.465 0 0 0 3.99 8.665zm.706-17.622a12.452 12.452 0 0 1 3.284 7.956H22a11.469 11.469 0 0 1 3.696-7.956zm-.706-.709a12.453 12.453 0 0 0-8-3.325v11.99H21a12.465 12.465 0 0 1 3.99-8.665zm-17.706.71A12.452 12.452 0 0 0 4 15.99h6.98a11.469 11.469 0 0 0-3.696-7.956zm.706-.71a12.453 12.453 0 0 1 8-3.325v11.99h-4.01a12.465 12.465 0 0 0-3.99-8.665z" fill="#929292" fill-rule="evenodd"/></svg>
